dist/svgs/circle-more.svg

<svg xmlns="http://www.w3.org/2000/svg" viewBox="0 0 512 512"><path d="M256 0q53 0 99.5 20T437 75t55 81.5 20 99.5-20 99.5-55 81.5-81.5 55-99.5 20-99.5-20T75 437t-55-81.5T0 256t20-99.5T75 75t81.5-55T256 0zM128 288q14 0 23-9t9-23-9-23-23-9-23 9-9 23 9 23 23 9zm128 0q14 0 23-9t9-23-9-23-23-9-23 9-9 23 9 23 23 9zm128 0q14 0 23-9t9-23-9-23-23-9-23 9-9 23 9 23 23 9z"/></svg>

<?xml version="1.0" encoding="UTF-8" standalone="no"?><svg   xmlns:svg="http://www.w3.org/2000/svg"   xmlns="http://www.w3.org/2000/svg"   version="1.1"   width="512"   height="512"   viewBox="0 0 512 512">  <path     d="M256 0Q309 0 355.5 20T437 75T492 156.5T512 256T492 355.5T437 437T355.5 492T256 512T156.5 492T75 437T20 355.5T0 256T20 156.5T75 75T156.5 20T256 0zM128 288Q142 288 151 279T160 256T151 233T128 224T105 233T96 256T105 279T128 288zM256 288Q270 288 279 279T288 256T279 233T256 224T233 233T224 256T233 279T256 288zM384 288Q398 288 407 279T416 256T407 233T384 224T361 233T352 256T361 279T384 288z"     id="circle-more" /></svg>
